public/assets/illustrations/root-margin.svg

<svg height="507" viewBox="0 0 800 507" width="800" xmlns="http://www.w3.org/2000/svg"><g fill="none" fill-rule="evenodd"><path d="m700 65v377h-600v-377zm-29.761273 30h-540v317h540z" fill="var(--illustration-accent)" fill-opacity=".5" opacity=".25"/><path d="m130.5 95.5h539v316h-539z" stroke="var(--illustration-accent)"/><path d="m101 66h598v375h-598z" stroke="var(--illustration-black)" stroke-width="2"/><g fill="var(--illustration-accent)" fill-rule="nonzero"><path d="m665 96.0166667v-1l4-.0006667v-27.033l-4 .0003333v-1h9v1l-4-.0003333v27.033l4 .0006667v1z"/><path d="m669.983333 100h-1v-9h1l-.000333 3.999h27.033l.000667-3.999h1v9h-1l-.000667-4.001h-27.033z"/><g transform="translate(633.023926 77.208008)"><path d="m1.640625 6.14257812c0 .44433594.23925781.70800782.64941406.70800782.41503906 0 .65429688-.25878906.65429688-.70800782v-5.23925781c0-.49316406-.31738282-.8203125-.79101563-.8203125-.2734375 0-.55175781.09765625-.90332031.33691407l-.87402344.61035156c-.24902343.16601562-.37597656.34667968-.37597656.55175781 0 .26855469.20019531.46875.46875.46875.14160156 0 .26367188-.04394531.47363281-.18066406l.66894531-.47363281h.02929688z"/><path d="m4.09667969 3.62304688c0 2.01171874.94238281 3.31054687 2.52441406 3.31054687s2.54882813-1.31347656 2.54882813-3.31054687v-.3125c0-2.01660157-.9375-3.31054688-2.52929688-3.31054688-1.58691406 0-2.54394531 1.30859375-2.54394531 3.31054688zm1.31835937-.30761719c0-1.40625.45898438-2.24121094 1.21582032-2.24121094.75683593 0 1.21582031.83984375 1.21582031 2.24121094v.29785156c0 1.40625-.45898438 2.24609375-1.21582031 2.24609375-.75683594 0-1.21582032-.83984375-1.21582032-2.24609375z"/><path d="m9.91210938 3.62304688c0 2.01171874.94238282 3.31054687 2.52441402 3.31054687 1.5820313 0 2.5488282-1.31347656 2.5488282-3.31054687v-.3125c0-2.01660157-.9375-3.31054688-2.5292969-3.31054688-1.5869141 0-2.54394532 1.30859375-2.54394532 3.31054688zm1.31835942-.30761719c0-1.40625.4589843-2.24121094 1.2158203-2.24121094.7568359 0 1.2158203.83984375 1.2158203 2.24121094v.29785156c0 1.40625-.4589844 2.24609375-1.2158203 2.24609375-.756836 0-1.2158203-.83984375-1.2158203-2.24609375z"/><path d="m17.2900391 7.92480469v-1.92382813h.0634765c.2294922.546875.7617188.859375 1.4697266.859375 1.2158203 0 1.9482422-.86914062 1.9482422-2.30957031v-.71777344c0-1.44042969-.7226563-2.3046875-1.928711-2.3046875-.727539 0-1.2988281.34667969-1.508789.90332031h-.0634766v-.24902343c-.0292969-.40039063-.2539062-.62011719-.6347656-.62011719-.4052734 0-.6298828.25390625-.6298828.71289062v5.64941407c0 .45410156.2294922.70800781.6396484.70800781.4150391 0 .6445313-.25390625.6445313-.70800781zm0-3.35449219v-.68847656c0-.83007813.415039-1.32324219 1.0888671-1.32324219.6884766 0 1.0791016.5078125 1.0791016 1.40136719v.46875c0 .88867187-.390625 1.40136718-1.0693359 1.40136718-.6591797 0-1.0986328-.49804687-1.0986328-1.25976562z"/><path d="m21.5380859 6.25c0 .33691406.2587891.59082031.5712891.59082031.2832031 0 .4589844-.12695312.6738281-.45410156l.9033203-1.38671875h.0634766l.9228516 1.39160156c.2050781.31738282.3955078.44921875.6835937.44921875.3125 0 .5712891-.25390625.5712891-.59570312 0-.17089844-.0634766-.32226563-.2001953-.46386719l-1.2646485-1.57714844 1.2988282-1.61621094c.102539-.11230468.15625-.26367187.15625-.41992187 0-.34179687-.2539063-.59082031-.5761719-.59082031-.2783203 0-.4541016.12695312-.6689453.44921875l-.9228516 1.38671875h-.0634766l-.9277343-1.38671875c-.209961-.32226563-.390625-.44921875-.6689453-.44921875-.3222657 0-.5859376.24902344-.5859376.5859375 0 .16113281.0683594.33203125.1708985.43945312l1.3037109 1.6015625-1.2841797 1.62109375c-.0976562.10742188-.15625.26855469-.15625.42480469z"/></g></g></g></svg>

<?xml version="1.0" encoding="UTF-8"?>
<svg width="800px" height="507px" viewBox="0 0 800 507" version="1.1" xmlns="http://www.w3.org/2000/svg" xmlns:xlink="http://www.w3.org/1999/xlink">
    <title>root-margin</title>
    <g id="root-margin" stroke="none" stroke-width="1" fill="none" fill-rule="evenodd">
        <path d="M700,65 L700,442 L100,442 L100,65 L700,65 Z M670.238727,95 L130.238727,95 L130.238727,412 L670.238727,412 L670.238727,95 Z" id="Combined-Shape" fill-opacity="0.5" fill="var(--illustration-accent)" opacity="0.25"></path>
        <rect id="Rectangle" stroke="var(--illustration-accent)" x="130.5" y="95.5" width="539" height="316"></rect>
        <rect id="Rectangle" stroke="var(--illustration-black)" stroke-width="2" x="101" y="66" width="598" height="375"></rect>
        <path id="Line-5" d="M665,96.0166667 L665,95.0166667 L669,95.016 L669,67.983 L665,67.9833333 L665,66.9833333 L674,66.9833333 L674,67.9833333 L670,67.983 L670,95.016 L674,95.0166667 L674,96.0166667 L665,96.0166667 Z" fill="var(--illustration-accent)" fill-rule="nonzero"></path>
        <path id="Line-5" d="M669.983333,100 L668.983333,100 L668.983333,91 L669.983333,91 L669.983,94.999 L697.016,94.999 L697.016667,91 L698.016667,91 L698.016667,100 L697.016667,100 L697.016,95.999 L669.983,95.999 L669.983333,100 Z" fill="var(--illustration-accent)" fill-rule="nonzero"></path>
        <g id="100px" transform="translate(633.023926, 77.208008)" fill="var(--illustration-accent)" fill-rule="nonzero">
            <path d="M1.640625,6.14257812 C1.640625,6.58691406 1.87988281,6.85058594 2.29003906,6.85058594 C2.70507812,6.85058594 2.94433594,6.59179688 2.94433594,6.14257812 L2.94433594,0.903320312 C2.94433594,0.41015625 2.62695312,0.0830078125 2.15332031,0.0830078125 C1.87988281,0.0830078125 1.6015625,0.180664062 1.25,0.419921875 L0.375976562,1.03027344 C0.126953125,1.19628906 0,1.37695312 0,1.58203125 C0,1.85058594 0.200195312,2.05078125 0.46875,2.05078125 C0.610351562,2.05078125 0.732421875,2.00683594 0.942382812,1.87011719 L1.61132812,1.39648438 L1.640625,1.39648438 L1.640625,6.14257812 Z" id="Path"></path>
            <path d="M4.09667969,3.62304688 C4.09667969,5.63476562 5.0390625,6.93359375 6.62109375,6.93359375 C8.203125,6.93359375 9.16992188,5.62011719 9.16992188,3.62304688 L9.16992188,3.31054688 C9.16992188,1.29394531 8.23242188,0 6.640625,0 C5.05371094,0 4.09667969,1.30859375 4.09667969,3.31054688 L4.09667969,3.62304688 Z M5.41503906,3.31542969 C5.41503906,1.90917969 5.87402344,1.07421875 6.63085938,1.07421875 C7.38769531,1.07421875 7.84667969,1.9140625 7.84667969,3.31542969 L7.84667969,3.61328125 C7.84667969,5.01953125 7.38769531,5.859375 6.63085938,5.859375 C5.87402344,5.859375 5.41503906,5.01953125 5.41503906,3.61328125 L5.41503906,3.31542969 Z" id="Shape"></path>
            <path d="M9.91210938,3.62304688 C9.91210938,5.63476562 10.8544922,6.93359375 12.4365234,6.93359375 C14.0185547,6.93359375 14.9853516,5.62011719 14.9853516,3.62304688 L14.9853516,3.31054688 C14.9853516,1.29394531 14.0478516,0 12.4560547,0 C10.8691406,0 9.91210938,1.30859375 9.91210938,3.31054688 L9.91210938,3.62304688 Z M11.2304688,3.31542969 C11.2304688,1.90917969 11.6894531,1.07421875 12.4462891,1.07421875 C13.203125,1.07421875 13.6621094,1.9140625 13.6621094,3.31542969 L13.6621094,3.61328125 C13.6621094,5.01953125 13.203125,5.859375 12.4462891,5.859375 C11.6894531,5.859375 11.2304688,5.01953125 11.2304688,3.61328125 L11.2304688,3.31542969 Z" id="Shape"></path>
            <path d="M17.2900391,7.92480469 L17.2900391,6.00097656 L17.3535156,6.00097656 C17.5830078,6.54785156 18.1152344,6.86035156 18.8232422,6.86035156 C20.0390625,6.86035156 20.7714844,5.99121094 20.7714844,4.55078125 L20.7714844,3.83300781 C20.7714844,2.39257812 20.0488281,1.52832031 18.8427734,1.52832031 C18.1152344,1.52832031 17.5439453,1.875 17.3339844,2.43164062 L17.2705078,2.43164062 L17.2705078,2.18261719 C17.2412109,1.78222656 17.0166016,1.5625 16.6357422,1.5625 C16.2304688,1.5625 16.0058594,1.81640625 16.0058594,2.27539062 L16.0058594,7.92480469 C16.0058594,8.37890625 16.2353516,8.6328125 16.6455078,8.6328125 C17.0605469,8.6328125 17.2900391,8.37890625 17.2900391,7.92480469 Z M17.2900391,4.5703125 L17.2900391,3.88183594 C17.2900391,3.05175781 17.7050781,2.55859375 18.3789062,2.55859375 C19.0673828,2.55859375 19.4580078,3.06640625 19.4580078,3.95996094 L19.4580078,4.42871094 C19.4580078,5.31738281 19.0673828,5.83007812 18.3886719,5.83007812 C17.7294922,5.83007812 17.2900391,5.33203125 17.2900391,4.5703125 Z" id="Shape"></path>
            <path d="M21.5380859,6.25 C21.5380859,6.58691406 21.796875,6.84082031 22.109375,6.84082031 C22.3925781,6.84082031 22.5683594,6.71386719 22.7832031,6.38671875 L23.6865234,5 L23.75,5 L24.6728516,6.39160156 C24.8779297,6.70898438 25.0683594,6.84082031 25.3564453,6.84082031 C25.6689453,6.84082031 25.9277344,6.58691406 25.9277344,6.24511719 C25.9277344,6.07421875 25.8642578,5.92285156 25.7275391,5.78125 L24.4628906,4.20410156 L25.7617188,2.58789062 C25.8642578,2.47558594 25.9179688,2.32421875 25.9179688,2.16796875 C25.9179688,1.82617188 25.6640625,1.57714844 25.3417969,1.57714844 C25.0634766,1.57714844 24.8876953,1.70410156 24.6728516,2.02636719 L23.75,3.41308594 L23.6865234,3.41308594 L22.7587891,2.02636719 C22.5488281,1.70410156 22.3681641,1.57714844 22.0898438,1.57714844 C21.7675781,1.57714844 21.5039062,1.82617188 21.5039062,2.16308594 C21.5039062,2.32421875 21.5722656,2.49511719 21.6748047,2.60253906 L22.9785156,4.20410156 L21.6943359,5.82519531 C21.5966797,5.93261719 21.5380859,6.09375 21.5380859,6.25 Z" id="Path"></path>
        </g>
    </g>
</svg>
